X:1
T:Title
%%score { 1 | ( 2 3 ) }
L:1/8
Q:1/4=108
M:6/4
K:Bb
V:1 treble nm="Grand Piano"
V:2 bass 
V:3 bass 
V:1
 [F,B,DF]2 [B,D]2 [B,DF]2 [DFB]2 [DFA]2 [B,DG]2 | [F,B,DF]2 [B,D]2 [B,DG]2 [B,DF]6 | %2
w: Adam~Geibel * * * * *||
 [CEAc]2 [D_A=B]2 [E=Ac]2 [GAe]2 [FAd]2 [EAc]2 | [B,DFB]2 [DFc]2 [FBd]2 [CEAc]6 | %4
w: ||
 [F,B,DF]2 [B,D]2 [B,DF]2 [DFB]2 [DFA]2 [B,DG]2 | [F,B,DF]2 [B,D]2 [B,DG]2 [B,DF]6 | %6
w: ||
[M:25/16] [A,CFA]2 [=B,F_A]2 [CF=A]2 [FAd]2 [FAc] z3/2 [CFA]2 |[M:6/4] [B,=EG]6 [F,A,CF]6 | %8
w: ||
 [B,D]2 [A,CE]2 [G,_D=E]2 [F,=DF]2 [Dc]2 [DB]2 | [EB] [EA]3 [E_A]2 [E=A]6 | %10
w: ||
 F2 G2 _A2 =A2 [Ad]2 [Ac]2 | c B3 c2 [Fd]6 | d2 _d2 =d2 f2 d2 B2 | %13
w: |||
[M:15/8] [Gc] [Gc]2- [Gc] [EG]2 [GB]3- [GB]6 |[M:13/8] F2 G2 A2 B2 e3 d2 |[M:6/4] c6 [DB]6 |] %16
w: |||
V:2
 z2 D,2 F,2 B,2 A,2 G,2 | z2 D,2 G,2 F,6 | z2 =B,2 C2 E2 D2 C2 | B,,2 C2 D2 F,6 | %4
 z2 D,2 F,2 B,2 A,2 G,2 | z2 D,2 G,2 F,6 |[M:25/16] C,2 _A,2 =A,2 D2 C z3/2 A,2 |[M:6/4] C,6 F,,6 | %8
 B,,2 B,,2 B,,2 B,,2 [B,,F,]2 [B,,F,]2 | [C,F,] [C,F,]3 [C,F,]2 [C,F,]6 | %10
 [F,A,E]2 [F,B,E]2 [F,=B,D]2 [F,CE]2[K:treble] [F,F]2 [F,F]2 | %11
 [B,EF] [B,DF]3 [F,A,F]2[K:bass] [B,,B,]6 | [B,F]2 [B,=E]2 [B,F]2 [B,D_A]2 [B,FA]2 [B,DA]2 | %13
[M:15/8][K:bass] [E,E] [E,E]2- [E,E] [E,B,]2 [=E,_D]3- [E,D]6 | %14
[M:13/8] [F,D]2 [F,_D=E]2 [F,C_E]2 [F,B,=D]2 [F,B,G]3 [F,B,F]2 |[M:6/4] [F,A,E]6 [B,,B,]6 |] %16
V:3
 B,,12 | B,,12 | F,12 | x12 | B,,12 | B,,12 |[M:25/16] x25/2 |[M:6/4] x12 | x12 | x12 | %10
 x8[K:treble] x4 | x6[K:bass] x6 | x12 |[M:15/8][K:bass] x15 |[M:13/8] x13 |[M:6/4] x12 |] %16

